X:110
T: Claudy's Fancy
C: Peter Fitzgerald
Z: B.Black
R: reel
M: 4/4
L: 1/8
K: G
F |: GEEF GE E2 | AB B2 A2 BG | D3 A BGED |\
FD D2 DFGA |
GEEF GE E2 | AB B2 A2 BG | E2 BE dEBd |1\
dBcA dABA :|
|2 dBcA BEEe || dBcA G3 e | dBcA GBdG |\
FDAD FADA |
Adfg feed|dBcA G3 e|dBcA GBde|fedB AGFE|1\
ADEG FDDd :|2 ADEG GE E2 ||
